poi/svg/1121.svg

<?xml version="1.0" encoding="UTF-8" standalone="no"?>
<svg
   xmlns:dc="http://purl.org/dc/elements/1.1/"
   xmlns:cc="http://creativecommons.org/ns#"
   xmlns:rdf="http://www.w3.org/1999/02/22-rdf-syntax-ns#"
   xmlns:svg="http://www.w3.org/2000/svg"
   xmlns="http://www.w3.org/2000/svg"
   xmlns:sodipodi="http://sodipodi.sourceforge.net/DTD/sodipodi-0.dtd"
   xmlns:inkscape="http://www.inkscape.org/namespaces/inkscape"
   inkscape:version="1.0 (4035a4fb49, 2020-05-01)"
   sodipodi:docname="1121.svg"
   id="svg20"
   version="1.2"
   viewBox="0 0 42.519639 42.519639"
   height="14.999999mm"
   width="14.999999mm">
  <metadata
     id="metadata24">
    <rdf:RDF>
      <cc:Work
         rdf:about="">
        <dc:format>image/svg+xml</dc:format>
        <dc:type
           rdf:resource="http://purl.org/dc/dcmitype/StillImage" />
        <dc:title>Qt SVG Document</dc:title>
      </cc:Work>
    </rdf:RDF>
  </metadata>
  <sodipodi:namedview
     inkscape:current-layer="svg20"
     inkscape:window-maximized="0"
     inkscape:window-y="0"
     inkscape:window-x="0"
     inkscape:cy="28.346482"
     inkscape:cx="28.346482"
     inkscape:zoom="5.8410537"
     showgrid="false"
     id="namedview22"
     inkscape:window-height="480"
     inkscape:window-width="1034"
     inkscape:pageshadow="2"
     inkscape:pageopacity="0"
     guidetolerance="10"
     gridtolerance="10"
     objecttolerance="10"
     borderopacity="1"
     bordercolor="#666666"
     pagecolor="#ffffff" />
  <title
     id="title2">Qt SVG Document</title>
  <desc
     id="desc4">Generated with Qt</desc>
  <defs
     id="defs6" />
  <g
     transform="translate(5.25984,5.25984)"
     id="g18"
     stroke-linejoin="bevel"
     stroke-linecap="square"
     fill-rule="evenodd"
     stroke-width="1"
     stroke="#000000"
     fill="none">
    <g
       id="g10"
       font-style="normal"
       font-weight="400"
       font-size="7.8px"
       font-family="'MS Shell Dlg 2'"
       stroke="none"
       fill-opacity="1"
       fill="#3d97f1">
      <path
         id="path8"
         d="M 37.2598,16 C 37.2598,27.7415 27.7415,37.2598 16,37.2598 4.25851,37.2598 -5.25984,27.7415 -5.25984,16 -5.25984,4.25851 4.25851,-5.25984 16,-5.25984 27.7415,-5.25984 37.2598,4.25851 37.2598,16"
         fill-rule="evenodd"
         vector-effect="non-scaling-stroke" />
    </g>
    <g
       id="g14"
       font-style="normal"
       font-weight="400"
       font-size="7.8px"
       font-family="'MS Shell Dlg 2'"
       transform="translate(16,13.1654)"
       stroke="none"
       fill-opacity="0.94902"
       fill="#ffffff">
      <path
         id="path12"
         d="m 11.3921,1.14941 c -0.224,0 -0.3919,-0.07348 -0.5039,-0.220455 -0.112,-0.146973 -0.168,-0.304443 -0.168,-0.472412 0,-0.181966 0.056,-0.335938 0.168,-0.46191409 0.112,-0.12597691 0.2799,-0.18896491 0.5039,-0.18896491 0.2939,0 0.5039,0.062988 0.6299,0.18896491 0.1259,0.12597609 0.1889,0.27994809 0.1889,0.46191409 0,0.167969 -0.063,0.325439 -0.1889,0.472412 C 11.896,1.07593 11.686,1.14941 11.3921,1.14941 m -0.6719,0.5459 h 1.4907 v 7.5376 H 10.7202 V 1.69531 M 3.45557,-0.194336 H 9.29248 V 0.960449 H 4.77832 V 2.89209 H 9.29248 V 4.06787 H 4.77832 V 9.23291 H 3.45557 V -0.194336 M -12.1655,-4.45654 c 0,-0.82585 0.3429,-1.53272 1.0288,-2.12061 0.6859,-0.58789 1.5327,-0.88183 2.54051,-0.88183 H 2.97266 c -0.51791,0.37793 -0.94133,0.82234 -1.27027,1.33325 -0.32894,0.5109 -0.49341,1.0673 -0.49341,1.66919 V 13.4741 c 0,0.8119 -0.342932,1.5047 -1.028804,2.0786 -0.685873,0.5739 -1.518716,0.8609 -2.498536,0.8609 h -6.27783 c -1.00781,0 -1.85461,-0.287 -2.54051,-0.8609 -0.6859,-0.5739 -1.0288,-1.2667 -1.0288,-2.0786 V -4.45654 M -0.638672,1.94727 H -1.96143 v 6.84472 h 1.322758 V 1.94727 M -1.33154,0.288574 c -0.48991,0 -0.73487,0.195964 -0.73487,0.587891 0,0.139975 0.06649,0.262455 0.19947,0.367435 0.13297,0.10498 0.31144,0.15747 0.5354,0.15747 0.23795,0 0.41292,-0.05249 0.524899,-0.15747 0.11198,-0.10498 0.167969,-0.22746 0.167969,-0.367435 0,-0.391927 -0.230957,-0.587891 -0.692868,-0.587891 m -6.4878,0 -1.0708,5.668946 -1.02881,-5.668946 h -1.17575 l 1.51169,8.503416 h 1.42774 l 0.94482,-5.66894 1.0708,5.66894 h 1.32276 L -3.30518,0.288574 H -4.45996 L -5.48877,5.83154 -6.47559,0.288574 h -1.34375"
         fill-rule="evenodd"
         vector-effect="none" />
    </g>
    <g
       id="g16"
       font-style="normal"
       font-weight="400"
       font-size="7.8px"
       font-family="'MS Shell Dlg 2'"
       stroke="none"
       fill-opacity="1"
       fill="#3d97f1" />
  </g>
</svg>

<?xml version="1.0" encoding="UTF-8" standalone="no"?>
<svg width="11.2889mm" height="11.2889mm"
 viewBox="0 0 32 32"
 xmlns="http://www.w3.org/2000/svg" xmlns:xlink="http://www.w3.org/1999/xlink"  version="1.2" baseProfile="tiny">
<title>Qt SVG Document</title>
<desc>Generated with Qt</desc>
<defs>
</defs>
<g fill="none" stroke="black" stroke-width="1" fill-rule="evenodd" stroke-linecap="square" stroke-linejoin="bevel" >

<g fill="#3d97f1" fill-opacity="1" stroke="none" transform="matrix(1,0,0,1,0,0)"
font-family="MS Shell Dlg 2" font-size="7.8" font-weight="400" font-style="normal" 
>
<path vector-effect="non-scaling-stroke" fill-rule="evenodd" d="M37.2598,16 C37.2598,27.7415 27.7415,37.2598 16,37.2598 C4.25851,37.2598 -5.25984,27.7415 -5.25984,16 C-5.25984,4.25851 4.25851,-5.25984 16,-5.25984 C27.7415,-5.25984 37.2598,4.25851 37.2598,16 "/>
</g>

<g fill="#ffffff" fill-opacity="0.94902" stroke="none" transform="matrix(1,0,0,1,16,13.1654)"
font-family="MS Shell Dlg 2" font-size="7.8" font-weight="400" font-style="normal" 
>
<path vector-effect="none" fill-rule="evenodd" d="M11.3921,1.14941 C11.1681,1.14941 11.0002,1.07593 10.8882,0.928955 C10.7762,0.781982 10.7202,0.624512 10.7202,0.456543 C10.7202,0.274577 10.7762,0.120605 10.8882,-0.00537109 C11.0002,-0.131348 11.1681,-0.194336 11.3921,-0.194336 C11.686,-0.194336 11.896,-0.131348 12.022,-0.00537109 C12.1479,0.120605 12.2109,0.274577 12.2109,0.456543 C12.2109,0.624512 12.1479,0.781982 12.022,0.928955 C11.896,1.07593 11.686,1.14941 11.3921,1.14941 M10.7202,1.69531 L12.2109,1.69531 L12.2109,9.23291 L10.7202,9.23291 L10.7202,1.69531 M3.45557,-0.194336 L9.29248,-0.194336 L9.29248,0.960449 L4.77832,0.960449 L4.77832,2.89209 L9.29248,2.89209 L9.29248,4.06787 L4.77832,4.06787 L4.77832,9.23291 L3.45557,9.23291 L3.45557,-0.194336 M-12.1655,-4.45654 C-12.1655,-5.28239 -11.8226,-5.98926 -11.1367,-6.57715 C-10.4508,-7.16504 -9.604,-7.45898 -8.59619,-7.45898 L2.97266,-7.45898 C2.45475,-7.08105 2.03133,-6.63664 1.70239,-6.12573 C1.37345,-5.61483 1.20898,-5.05843 1.20898,-4.45654 L1.20898,13.4741 C1.20898,14.286 0.866048,14.9788 0.180176,15.5527 C-0.505697,16.1266 -1.33854,16.4136 -2.31836,16.4136 L-8.59619,16.4136 C-9.604,16.4136 -10.4508,16.1266 -11.1367,15.5527 C-11.8226,14.9788 -12.1655,14.286 -12.1655,13.4741 L-12.1655,-4.45654 M-0.638672,1.94727 L-1.96143,1.94727 L-1.96143,8.79199 L-0.638672,8.79199 L-0.638672,1.94727 M-1.33154,0.288574 C-1.82145,0.288574 -2.06641,0.484538 -2.06641,0.876465 C-2.06641,1.01644 -1.99992,1.13892 -1.86694,1.2439 C-1.73397,1.34888 -1.5555,1.40137 -1.33154,1.40137 C-1.09359,1.40137 -0.91862,1.34888 -0.806641,1.2439 C-0.694661,1.13892 -0.638672,1.01644 -0.638672,0.876465 C-0.638672,0.484538 -0.869629,0.288574 -1.33154,0.288574 M-7.81934,0.288574 L-8.89014,5.95752 L-9.91895,0.288574 L-11.0947,0.288574 L-9.58301,8.79199 L-8.15527,8.79199 L-7.21045,3.12305 L-6.13965,8.79199 L-4.81689,8.79199 L-3.30518,0.288574 L-4.45996,0.288574 L-5.48877,5.83154 L-6.47559,0.288574 L-7.81934,0.288574"/>
</g>

<g fill="#3d97f1" fill-opacity="1" stroke="none" transform="matrix(1,0,0,1,0,0)"
font-family="MS Shell Dlg 2" font-size="7.8" font-weight="400" font-style="normal" 
>
</g>
</g>
</svg>
